public/images/product.svg

<svg xmlns="http://www.w3.org/2000/svg" width="512" height="512" viewBox="-31 -31 512 512"><path fill="#F3D36E" d="M299.68 25H150.32c-17.924 0-32.468 15.432-32.468 34.48V390.52c0 19.05 14.544 34.48 32.47 34.48H299.68c17.925 0 32.47-15.43 32.47-34.48V59.48C332.147 40.433 317.603 25 299.68 25zm22.59 365.52c0 13.565-10.135 24.603-22.59 24.603H150.32c-12.456 0-22.59-11.036-22.59-24.604V59.48c0-13.567 10.135-24.604 22.59-24.604h149.36c12.456 0 22.592 11.037 22.592 24.605v331.04z"/><path fill="#F3D36E" d="M299.68 37.346H150.32c-11.085 0-20.123 9.926-20.123 22.136V390.52c0 12.21 9.037 22.135 20.124 22.135h149.36c11.084 0 20.123-9.926 20.123-22.136V59.48c0-12.21-9.036-22.134-20.123-22.134zm10.097 323.05H140.222V89.605h169.555v270.79z"/></svg>

<?xml version="1.0" encoding="utf-8"?>
<!-- Generator: Adobe Illustrator 16.0.4, SVG Export Plug-In . SVG Version: 6.00 Build 0)  -->
<!DOCTYPE svg PUBLIC "-//W3C//DTD SVG 1.1//EN" "http://www.w3.org/Graphics/SVG/1.1/DTD/svg11.dtd">
<svg version="1.1" id="Layer_1" xmlns="http://www.w3.org/2000/svg" xmlns:xlink="http://www.w3.org/1999/xlink" x="0px" y="0px"
	 width="512px" height="512px" viewBox="-31 -31 512 512" enable-background="new -31 -31 512 512" xml:space="preserve">
<g id="Border" display="none">
	<path display="inline" fill="#292825" d="M395.434,0H54.567C24.431,0,0,24.655,0,55.065v339.869C0,425.345,24.431,450,54.567,450
		h340.867C425.568,450,450,425.345,450,394.936V55.065C450,24.655,425.568,0,395.434,0z M439.964,393.052
		c0,25.722-20.799,46.575-46.452,46.575H56.489c-25.654,0-46.453-20.854-46.453-46.575V58.13c0-25.721,20.799-46.575,46.453-46.575
		h337.022c25.653,0,46.452,20.854,46.452,46.575L439.964,393.052L439.964,393.052z"/>
</g>
<g id="Cases" display="none">
	<path id="Back" display="inline" fill="#292825" d="M361.833,281.139c0,12.442-9.496,22.528-21.212,22.528h-97.575
		c-11.716,0-21.212-10.086-21.212-22.528V64.862c0-12.442,9.497-22.529,21.212-22.529h97.575c11.716,0,21.212,10.086,21.212,22.529
		V281.139z"/>
	<g id="Layer_4" display="inline">
		<path id="Break" fill="#FFFFFF" d="M172.045,364.667c-17.21,0-31.212-14.592-31.212-32.528V115.862
			c0-17.937,14.002-32.529,31.212-32.529h97.575c17.211,0,31.213,14.592,31.213,32.529v216.277
			c0,17.937-14.002,32.527-31.213,32.527L172.045,364.667L172.045,364.667z"/>
		<path id="Front" fill="#292825" d="M290.833,332.139c0,12.442-9.496,22.528-21.213,22.528h-97.575
			c-11.715,0-21.212-10.086-21.212-22.528V115.862c0-12.442,9.497-22.529,21.212-22.529h97.575
			c11.717,0,21.213,10.086,21.213,22.529V332.139z"/>
	</g>
	<g id="Layer_3" display="inline">
		<path id="Break_1_" fill="#FFFFFF" d="M109.379,422c-17.21,0-31.212-14.592-31.212-32.527V173.195
			c0-17.937,14.002-32.529,31.212-32.529h97.575c17.21,0,31.212,14.592,31.212,32.529v216.276c0,17.938-14.002,32.528-31.212,32.528
			L109.379,422L109.379,422z"/>
		<path id="Front_1_" fill="#292825" d="M228.166,389.473c0,12.441-9.496,22.527-21.212,22.527h-97.575
			c-11.715,0-21.212-10.086-21.212-22.527V173.195c0-12.442,9.497-22.529,21.212-22.529h97.575
			c11.716,0,21.212,10.086,21.212,22.529V389.473z"/>
	</g>
</g>
<path fill="#F3D36E" d="M299.68,25H150.321c-17.925,0-32.469,15.432-32.469,34.481v331.037c0,19.05,14.544,34.481,32.469,34.481
	H299.68c17.925,0,32.469-15.432,32.469-34.481V59.481C332.148,40.432,317.604,25,299.68,25z M322.271,390.519
	c0,13.566-10.136,24.604-22.592,24.604H150.321c-12.457,0-22.592-11.036-22.592-24.604V59.481c0-13.568,10.136-24.605,22.592-24.605
	H299.68c12.456,0,22.592,11.037,22.592,24.605V390.519L322.271,390.519z"/>
<path fill="#F3D36E" d="M299.68,37.346H150.321c-11.086,0-20.124,9.926-20.124,22.136v331.037c0,12.21,9.037,22.136,20.124,22.136
	H299.68c11.084,0,20.123-9.926,20.123-22.136V59.481C319.803,47.271,310.767,37.346,299.68,37.346z M309.777,360.395H140.222V89.605
	h169.555V360.395L309.777,360.395z"/>
</svg>
